X:1
T:Puncheon Floor, The
C:arr: Lalurie Andres
L:1/4
M:4/4
I:linebreak $
K:G
V:1 treble
V:1
"G" G3/2 A/ B c | d g d3/2 c/ | d g d g | d g"D" d/c/B/A/ |$
 "G"G3/2 A/ B c | d g d B/c/ | "D" d c B A |"G" G2 G2 ::$
 [K:D ]|:"D"a f "A"g/f/ e |"D" f/e/ d "A"e2 |"D" f d "A"e A |"D" f/e/d/f/ "A"e f/g/ |$
  "D"a f "A"g/f/ e |"D" f/e/ d "A"e2 |"D" f d "A"e c |1 "D" d2 d f/g/ :|2 "D7" d =c B A |]
